assets/static/img/icon/tg.svg

<svg width="24" height="24" viewBox="0 0 24 24" fill="none" xmlns="http://www.w3.org/2000/svg">
	<path d="M17.1971 6.70442L5.71235 11.0925C5.24463 11.2788 5.18759 11.8407 5.66387 12.0016L8.57284 13.0182L15.3947 8.75159C15.4217 8.73638 15.4534 8.7314 15.4839 8.73756C15.5143 8.74373 15.5414 8.76064 15.5602 8.78513C15.579 8.80963 15.5883 8.84005 15.5862 8.87076C15.584 8.90144 15.5707 8.93033 15.5486 8.95211L10.1814 13.727L9.81914 16.5506C9.81309 16.5941 9.82109 16.6383 9.84189 16.6771C9.86269 16.7158 9.89532 16.747 9.93505 16.7664C9.97478 16.7858 10.0198 16.7923 10.0634 16.785C10.1071 16.7777 10.1473 16.7569 10.1785 16.7257L11.8896 15.0485L14.7644 17.2594C14.852 17.3041 14.9486 17.3292 15.0471 17.3327C15.1456 17.3363 15.2438 17.3183 15.3344 17.28C15.4252 17.2417 15.5062 17.184 15.5718 17.1112C15.6374 17.0383 15.6861 16.952 15.7141 16.8584L17.7675 7.15903C17.7842 7.08538 17.7798 7.00855 17.7547 6.93727C17.7295 6.86598 17.6847 6.8031 17.6254 6.75576C17.566 6.70842 17.4943 6.67851 17.4186 6.66943C17.343 6.66036 17.2662 6.67248 17.1971 6.70442Z" fill="white" />
</svg>

<svg xmlns="http://www.w3.org/2000/svg" width="24" height="24" fill="none"><path fill="#fff" d="M17.197 6.704 5.712 11.093c-.467.186-.524.748-.048.909l2.909 1.016 6.822-4.266a.13.13 0 0 1 .165.033.13.13 0 0 1-.011.167l-5.368 4.775-.362 2.824a.21.21 0 0 0 .116.215.21.21 0 0 0 .243-.04l1.712-1.677 2.874 2.21a.675.675 0 0 0 .95-.4l2.053-9.7a.4.4 0 0 0-.142-.403.41.41 0 0 0-.428-.052"/></svg>
